packages/assets/files/fram/colors/images/DashboardBackground.svg

<svg width="321" height="160" viewBox="0 0 321 160" fill="none" xmlns="http://www.w3.org/2000/svg">
<path d="M33.0315 133.25C19.8242 141.635 8.20779 151.714 0.204774 160L0.1875 116.892C5.29768 112.844 10.4277 109.178 15.5604 105.914L16.3088 105.419C23.8734 100.269 31.9836 95.9744 41.0993 92.2922C68.3866 81.2659 99.8662 77.9148 133.191 74.3706L133.294 74.3596C140.125 73.6333 147.18 72.8828 154.324 72.0474C186.066 68.3401 231.952 60.6687 270.324 45.168L272.057 44.2688C295.035 33.4556 313.218 19.7549 320.187 0L320.188 54.1558C307.362 63.4724 296.541 69.573 282.447 75.2683C240.734 92.1199 191.794 100.349 158.079 104.287C150.908 105.126 143.902 105.871 137.118 106.593L136.966 106.609L136.895 106.616L136.619 106.646C105.603 109.945 76.3116 113.062 53.2217 122.394C46.2387 125.214 40.0954 128.461 34.4394 132.321L34.2302 132.463L33.0315 133.25Z" fill="white" fill-opacity="0.2"/>
</svg>

<svg xmlns="http://www.w3.org/2000/svg" width="321" height="160" fill="none"><path fill="#fff" fill-opacity=".2" d="M33.032 133.25C19.824 141.635 8.207 151.714.205 160l-.017-43.108c5.11-4.048 10.24-7.714 15.372-10.978l.749-.495c7.564-5.15 15.675-9.445 24.79-13.127 27.288-11.026 58.767-14.377 92.092-17.921l.103-.011c6.831-.727 13.886-1.477 21.03-2.313 31.742-3.707 77.628-11.378 116-26.879l1.733-.9C295.035 33.457 313.218 19.756 320.187 0l.001 54.156c-12.826 9.316-23.647 15.417-37.741 21.112-41.713 16.852-90.653 25.081-124.368 29.019-7.171.839-14.177 1.584-20.961 2.306l-.152.016-.071.007-.276.03c-31.016 3.299-60.307 6.416-83.397 15.748-6.983 2.82-13.127 6.067-18.783 9.927l-.209.142-1.198.787Z"/></svg>
